X:0372
T:Drub the Rogues.
M:6/8
L:1/8
Q:3/8=120
I: :: :: ::
Z:Jack Campin * www.campin.me.uk * 2009
K:G
  GFG A2B| cBA dBG|GFG A2B|cAF  G3:|
  BdB A2d|^ceG G2F|A2A Bgf|ed^c d3:|
  d2d dBc| ded dBc|A2c BGd|dcB  B2
A|GFG A2B| cBA dBG|ege dBd|cBA  G3:|

